!!!!SEGMENT: Distler_Jahrkreis_35_Selig-sind-die-Toten_3v.krn
!!!COM: Distler, Hugo
!!!CDT: 1908-1942
!!!OPR@@DE: Der Jahrkreis
!!!OPR@EN: The Year Cycle
!!!OTL@@DE: Selig sind die Toten
!!!OTL@EN: Blessed are the dead
!!!OPS: 5
!!!ONM: 35
!!!RNB: Unmeasured section at start of music omitted.
**kern	**text	**kern	**text	**kern	**text
*part3	*part3	*part2	*part2	*part1	*part1
*staff3	*staff3	*staff2	*staff2	*staff1	*staff1
*Ibass	*	*Ialto	*	*Isoprn	*
*clefF4	*	*clefG2	*	*clefG2	*
*k[]	*	*k[]	*	*k[]	*
*MM120	*	*MM120	*	*MM120	*
=1	=1	=1	=1	=1	=1
4B-	Sie	4r	.	4r	.
=2	=2	=2	=2	=2	=2
*M4/4	*	*M4/4	*	*M4/4	*
2F	ru-	4r	.	4r	.
.	.	4B-	Sie	4f	Sie
4B-,	hen,	(4.d	ru-	(4g	ru-
4B-	sie	.	.	[4b-	.
.	.	8e-L	.	.	.
=3	=3	=3	=3	=3	=3
2F	ru-	8f	.	4b-]	.
.	.	8gJ	.	.	.
.	.	4.f	.	4.a	.
4B-,	hen,	.	.	.	.
.	.	8e-	.	8g	.
4B-	sie	4d	.	4f	.
=4	=4	=4	=4	=4	=4
2F	ru-	4c	.	4.g	.
.	.	4.d	.	.	.
.	.	.	.	8fL	.
4B-	hen	.	.	8g	.
.	.	8e-L	.	8aJ	.
4B-	von	8f	.	4b-)	.
.	.	8gJ)	.	.	.
=5	=5	=5	=5	=5	=5
*M3/2	*	*M3/2	*	*M3/2	*
4F	ih-	8f	hen	8b-	hen
.	.	8f	von	8b-	von
4G	rer	8f	ih-	8b-	ih-
.	.	8f	rer	8b-	rer
2A-	Ar-	2e-	Ar-	2cc	Ar-
2B-	beit.	2f	beit.	2dd	beit.
!!LO:LB:g=original
=6||	=6	=6||	=6	=6||	=6
*M3/4	*	*M3/4	*	*M3/4	*
2.r	.	2.r	.	4dd	Und
.	.	.	.	4dd	ih-
.	.	.	.	4dd	re
=7	=7	=7	=7	=7	=7
2.r	.	4g	Und	4ee-	Wer-
.	.	4g	ih-	4dd	ke
.	.	4g	re	[4cc	fol-
=8	=8	=8	=8	=8	=8
4c	Und	4a-	Wer-	8cc]	.
.	.	.	.	8b-	gen
4c	ih-	4g	ke	4cc	ih-
4c	re	[4f	fol-	4cc	nen
=9	=9	=9	=9	=9	=9
4d-	Wer-	8f]	.	2.b-,	nach,
.	.	8f	gen	.	.
4c	ke	4e-	ih-	.	.
[4B-	fol-	4g	nen	.	.
!!LO:LB:g=original
=10	=10	=10	=10	=10	=10
8B-]	.	2.f,	nach,	4dd	und
8B-	gen	.	.	.	.
4B-	ih-	.	.	4dd	ih-
4A-	nen	.	.	4dd	re
=11	=11	=11	=11	=11	=11
2c	nach,	4g	und	4ee-	Wer-
.	.	4g	ih-	4dd	ke
4r	.	4g	re	[4cc	fol-
=12	=12	=12	=12	=12	=12
4c	und	4a-	Wer-	8cc]	.
.	.	.	.	8b-	gen
4c	ih-	4g	ke	4cc	ih-
4c	re	[4f	fol-	4cc	nen
=13	=13	=13	=13	=13	=13
4d-	Wer-	8f]	.	2.b-,	nach,
.	.	8f	gen	.	.
4c	ke	4e-	ih-	.	.
[4B-	fol-	4g	nen	.	.
=14	=14	=14	=14	=14	=14
8B-]	.	2.f,	nach,	4dd	und
8B-	gen	.	.	.	.
4B-	ih-	.	.	4dd	ih-
4A-	nen	.	.	4dd	re
!!LO:LB:g=original
=15	=15	=15	=15	=15	=15
2c	nach,	4g	und	2ee-	Wer-
.	.	4g	ih-	.	.
4r	.	4g	re	[4dd	ke
=16	=16	=16	=16	=16	=16
2.r	.	(4.b-	Wer-	4dd]	.
.	.	.	.	4cc	fol-
.	.	8a-L	.	.	.
.	.	8g	.	4b-	gen
.	.	8fJ	.	.	.
=17	=17	=17	=17	=17	=17
(4.c	fol-	2e-)	.	4cc	ih-
.	.	.	.	2cc	nen
8B-L	.	.	.	.	.
8A-	.	4e-	ke	.	.
8GJ	.	.	.	.	.
=18	=18	=18	=18	=18	=18
4F)	.	4.f	fol-	[2.dd	nach.
4E-	gen	.	.	.	.
.	.	8g	gen	.	.
[4F	ih-	[4a	ih-	.	.
=19	=19	=19	=19	=19	=19
4F]	.	4a]	.	2.dd]	.
4F	nen	4a	nen	.	.
4G	nach.	4bn	nach.	.	.
=20||	=20	=20||	=20	=20||	=20
==	==	==	==	==	==
*-	*-	*-	*-	*-	*-
!!!YOR: Bärenreiter-Ausgabe 676
!!!YOY: 1933
!!!EFL: 35/52
!!!URL-pdf: https://imslp.eu/files/imglnks/euimg/7/7d/IMSLP834545-PMLP518834-5-jahrkreis-EA--original-paper-600dpi.pdf#page=67 First edition, Kassel: Bärenreiter, 1933. Plate BA 676.
!!!URL-imslp: https://imslp.org/wiki/Der_Jahrkreis,_Op.5_(Distler,_Hugo)#IMSLP834545
!!!system-decoration: [(s1,s2,s3)]
!!!ENC: Lucas Hofmann
!!!END: 2024/01/08
!!!title: @{OPR@@DE}, Op. @{OPS}, Nr. @{ONM}. @{OTL@@DE}
